symbols/web/settings_backup_restore/materialsymbolsrounded/settings_backup_restore_gradN25_48px.svg

<svg xmlns="http://www.w3.org/2000/svg" height="48" width="48"><path d="M23.95 27.65q-1.5 0-2.575-1.075Q20.3 25.5 20.3 24q0-1.5 1.075-2.6t2.575-1.1q1.5 0 2.6 1.1t1.1 2.6q0 1.5-1.1 2.575-1.1 1.075-2.6 1.075Zm0 14.1q-7.05 0-12.125-4.75T6.2 25.3q0-.55.4-.975.4-.425 1.05-.425.55 0 .95.4.4.4.5 1.05.55 5.7 4.8 9.625T23.95 38.9q6.2 0 10.55-4.35Q38.85 30.2 38.85 24q0-6.25-4.325-10.575Q30.2 9.1 23.95 9.1q-3.4 0-6.4 1.525-3 1.525-5.15 4.025h3.7q.55 0 .975.425.425.425.425 1.025 0 .6-.425 1t-.975.4H8.8q-.6 0-1-.4t-.4-1V8.8q0-.55.4-.975.4-.425 1-.425.65 0 1.05.425t.4.975v3.85q2.6-3 6.175-4.725Q20 6.2 23.95 6.2q3.65 0 6.9 1.4 3.25 1.4 5.675 3.8t3.825 5.65q1.4 3.25 1.4 6.95t-1.4 6.925q-1.4 3.225-3.8 5.65-2.4 2.425-5.65 3.8-3.25 1.375-6.95 1.375Z"/></svg>

<svg xmlns="http://www.w3.org/2000/svg" height="48" width="48"><path d="M23.95 27.65Q22.45 27.65 21.375 26.575Q20.3 25.5 20.3 24Q20.3 22.5 21.375 21.4Q22.45 20.3 23.95 20.3Q25.45 20.3 26.55 21.4Q27.65 22.5 27.65 24Q27.65 25.5 26.55 26.575Q25.45 27.65 23.95 27.65ZM23.95 41.75Q16.9 41.75 11.825 37Q6.75 32.25 6.2 25.3Q6.2 24.75 6.6 24.325Q7 23.9 7.65 23.9Q8.2 23.9 8.6 24.3Q9 24.7 9.1 25.35Q9.65 31.05 13.9 34.975Q18.15 38.9 23.95 38.9Q30.15 38.9 34.5 34.55Q38.85 30.2 38.85 24Q38.85 17.75 34.525 13.425Q30.2 9.1 23.95 9.1Q20.55 9.1 17.55 10.625Q14.55 12.15 12.4 14.65H16.1Q16.65 14.65 17.075 15.075Q17.5 15.5 17.5 16.1Q17.5 16.7 17.075 17.1Q16.65 17.5 16.1 17.5H8.8Q8.2 17.5 7.8 17.1Q7.4 16.7 7.4 16.1V8.8Q7.4 8.25 7.8 7.825Q8.2 7.4 8.8 7.4Q9.45 7.4 9.85 7.825Q10.25 8.25 10.25 8.8V12.65Q12.85 9.65 16.425 7.925Q20 6.2 23.95 6.2Q27.6 6.2 30.85 7.6Q34.1 9 36.525 11.4Q38.95 13.8 40.35 17.05Q41.75 20.3 41.75 24Q41.75 27.7 40.35 30.925Q38.95 34.15 36.55 36.575Q34.15 39 30.9 40.375Q27.65 41.75 23.95 41.75Z"/></svg>
